X:1247
T:John McGovern's
O:ireland
M:2/4
L:1/16
Q:150
S:Irish Traditional    Arranged by John Layton 14/2/01
R:Polka
B:Mally - 100 Irish Polkas
K:D
c3B|A2D2 F2A2|G2F2 E2FG|A2D2 F2A2|d4 c3B|
A2D2 F2A2|G2F2 E3d|c2A2 B2c2|d4::d3e|f2d2 g2f2|
e2c2 A3e|f2d2 g2f2|e2fe d2e2|f2d2 g2f2|e2c2 A3B|
cBA2 B2c2|d4:|
